src/assets/icons/edit.svg

<?xml version="1.0" encoding="UTF-8"?>
<svg width="24px" height="24px" viewBox="0 0 24 24" version="1.1" xmlns="http://www.w3.org/2000/svg" xmlns:xlink="http://www.w3.org/1999/xlink">
    <title>更多</title>
    <g id="扩展程序" stroke="none" stroke-width="1" fill="none" fill-rule="evenodd">
        <g id="我的钱包" transform="translate(-315.000000, -176.000000)" fill="#6E7585" fill-rule="nonzero">
            <g id="编组-2备份" transform="translate(20.000000, 148.000000)">
                <g id="编组" transform="translate(295.000000, 28.000000)">
                    <path d="M11,5 L13,5 C13.5522847,5 14,5.44771525 14,6 C14,6.55228475 13.5522847,7 13,7 L11,7 C10.4477153,7 10,6.55228475 10,6 C10,5.44771525 10.4477153,5 11,5 Z M11,11 L13,11 C13.5522847,11 14,11.4477153 14,12 C14,12.5522847 13.5522847,13 13,13 L11,13 C10.4477153,13 10,12.5522847 10,12 C10,11.4477153 10.4477153,11 11,11 Z M11,17 L13,17 C13.5522847,17 14,17.4477153 14,18 C14,18.5522847 13.5522847,19 13,19 L11,19 C10.4477153,19 10,18.5522847 10,18 C10,17.4477153 10.4477153,17 11,17 Z" id="形状结合"></path>
                </g>
            </g>
        </g>
    </g>
</svg>

<svg width="24" height="24" xmlns="http://www.w3.org/2000/svg"><path d="M11 5h2a1 1 0 0 1 0 2h-2a1 1 0 0 1 0-2zm0 6h2a1 1 0 0 1 0 2h-2a1 1 0 0 1 0-2zm0 6h2a1 1 0 0 1 0 2h-2a1 1 0 0 1 0-2z" fill="#6E7585" fill-rule="nonzero"/></svg>
